_inc/images/systems/logos/auto-racedriving.svg

<svg viewBox="0 0 200 40" xmlns="http://www.w3.org/2000/svg">
    <path d="M48.057 29.944a10.051 10.051 0 0 1-4.291-1.577c-1.982-1.31-3.426-3.225-4.102-5.45a11.342 11.342 0 0 1-.378-1.829c-.052-.49-.052-1.685 0-2.173.425-3.961 3.246-7.346 7.096-8.502a11.43 11.43 0 0 1 1.841-.375 15.635 15.635 0 0 1 2.186 0 10.07 10.07 0 0 1 6.15 2.992 9.897 9.897 0 0 1 2.412 4.055c.291.95.415 1.83.415 2.917 0 .815-.038 1.264-.18 1.973-.713 3.594-3.41 6.548-6.955 7.614-.519.16-1.31.317-1.842.375-.514.056-1.843.043-2.352-.02Zm-.314-4.364c0-2.148-.007-2.211-.263-2.703-.196-.376-.681-.856-1.06-1.051-.506-.261-.518-.261-2.701-.261H41.76l.027.148c.048.268.358 1.156.535 1.531a7.582 7.582 0 0 0 1.543 2.173 7.578 7.578 0 0 0 2.876 1.809c.349.124.861.269.954.274.037.003.048-.407.048-1.92Zm3.953 1.708a7.448 7.448 0 0 0 3.072-1.871 7.544 7.544 0 0 0 1.543-2.173c.177-.375.487-1.263.535-1.531l.027-.148h-1.94c-2.162 0-2.174 0-2.682.265-.381.194-.896.707-1.093 1.087-.267.503-.267.515-.267 2.663v1.927l.148-.028a8.15 8.15 0 0 0 .657-.191Zm-1.829-5.544a1.898 1.898 0 0 0 1.224-1.255c.07-.249.07-.727 0-.976a1.907 1.907 0 0 0-1.282-1.274 2.332 2.332 0 0 0-.984 0 1.904 1.904 0 0 0-1.283 1.274 2.206 2.206 0 0 0 0 .976c.131.446.469.877.873 1.103.186.101.304.139.646.223.13.031.618-.013.806-.071Zm-6.726-3.072a12.942 12.942 0 0 0 1.711-.382c.394-.125.712-.255 1.534-.625 1.436-.642 1.79-.731 2.931-.731 1.051 0 1.518.101 2.553.555l.971.423a10.81 10.81 0 0 0 3.666.862l.44.028-.022-.133a7.928 7.928 0 0 0-1.48-3.329c-.311-.41-1.022-1.118-1.436-1.426a7.915 7.915 0 0 0-3.788-1.531 10.508 10.508 0 0 0-1.809 0 7.919 7.919 0 0 0-3.789 1.531c-.412.308-1.123 1.016-1.435 1.426a7.927 7.927 0 0 0-1.479 3.329l-.023.133.459-.028c.257-.015.705-.061.996-.102Z" style="fill:#ccc"/>
    <path d="m77.014 22.927 1.989 6.224h-6.298l-1.386-5.565h-1.235l-.965 5.565h-5.725l3.314-18.702h9.04c3.435 0 5.153 1.526 5.153 4.578 0 1.257-.191 2.454-.572 3.591-.704 2.154-1.808 3.591-3.315 4.309Zm-4.309-7.69H71.56l-.663 3.74h1.326c.683 0 1.198-.073 1.547-.219.354-.153.595-.582.723-1.287.133-.711.201-1.147.201-1.307 0-.399-.154-.655-.462-.767-.315-.108-.824-.16-1.527-.16Zm14.193 10.952-1.176 2.962h-6.026l7.924-18.702h8.86l1.326 18.702h-6.057l-.121-2.962h-4.73Zm4.278-9.994h-.301l-2.109 5.236h2.41v-5.236Zm21.575 7.6-.482 5.027c-1.286.519-2.913.778-4.881.778-2.531 0-4.346-.489-5.444-1.467-1.092-.977-1.638-2.483-1.638-4.517 0-.859.141-2.125.422-3.801.603-3.431 1.641-5.925 3.114-7.481 1.479-1.556 3.817-2.334 7.011-2.334.743 0 1.594.077 2.551.23.951.146 1.648.329 2.089.548l-1.687 4.578c-1.185-.279-2.293-.419-3.325-.419-1.037 0-1.777.1-2.22.3-.441.199-.713.598-.813 1.197l-1.386 7.84a10.35 10.35 0 0 0 2.23.239c1.627 0 3.114-.239 4.459-.718Zm7.594 5.356h-5.725l3.314-18.702h5.726l-3.315 18.702Zm19.466 0h-5.394l-3.074-6.643c-.08-.14-.12-.336-.12-.588 0-.247.02-.529.06-.848h-.241l-1.416 8.079H123.9l3.315-18.702h5.394l3.074 6.643c.06.14.09.336.09.588 0 .247-.02.529-.06.848h.24l1.447-8.079h5.725l-3.314 18.702Zm14.071-5.506.151-.808h-1.446l.813-4.578h6.901l-1.778 9.995c-2.451.897-4.912 1.346-7.383 1.346-2.47 0-4.255-.489-5.353-1.467-1.092-.977-1.637-2.483-1.637-4.517 0-.859.14-2.125.422-3.801.602-3.471 1.667-5.975 3.194-7.511 1.526-1.536 4.057-2.304 7.593-2.304.743 0 1.691.08 2.843.239 1.158.16 2.008.34 2.551.539l-1.657 4.578c-1.507-.279-2.89-.419-4.149-.419-1.252 0-2.149.1-2.692.3-.542.199-.864.598-.964 1.197l-1.476 8.468h1.898c.683 0 1.188-.073 1.517-.22.334-.152.552-.498.652-1.037Z" style="white-space:pre;fill:#fff"/>
</svg>

<?xml version="1.0" encoding="utf-8"?>
<svg viewBox="0 0 200 40" xmlns="http://www.w3.org/2000/svg">
  <path d="M 48.057 29.944 C 46.527 29.757 45.045 29.21 43.766 28.367 C 41.784 27.057 40.34 25.142 39.664 22.917 C 39.502 22.399 39.345 21.615 39.286 21.088 C 39.234 20.598 39.234 19.403 39.286 18.915 C 39.711 14.954 42.532 11.569 46.382 10.413 C 46.902 10.252 47.692 10.096 48.223 10.038 C 48.714 9.987 49.918 9.987 50.409 10.038 C 52.739 10.284 54.898 11.335 56.559 13.03 C 57.696 14.2 58.502 15.55 58.971 17.085 C 59.262 18.035 59.386 18.915 59.386 20.002 C 59.386 20.817 59.348 21.266 59.206 21.975 C 58.493 25.569 55.796 28.523 52.251 29.589 C 51.732 29.749 50.941 29.906 50.409 29.964 C 49.895 30.02 48.566 30.007 48.057 29.944 Z M 47.743 25.58 C 47.743 23.432 47.736 23.369 47.48 22.877 C 47.284 22.501 46.799 22.021 46.42 21.826 C 45.914 21.565 45.902 21.565 43.719 21.565 L 41.76 21.565 L 41.787 21.713 C 41.835 21.981 42.145 22.869 42.322 23.244 C 42.709 24.06 43.2 24.753 43.865 25.417 C 44.707 26.248 45.65 26.846 46.741 27.226 C 47.09 27.35 47.602 27.495 47.695 27.5 C 47.732 27.503 47.743 27.093 47.743 25.58 Z M 51.696 27.288 C 52.905 26.897 53.868 26.308 54.768 25.417 C 55.434 24.753 55.925 24.06 56.311 23.244 C 56.488 22.869 56.798 21.981 56.846 21.713 L 56.873 21.565 L 54.933 21.565 C 52.771 21.565 52.759 21.565 52.251 21.83 C 51.87 22.024 51.355 22.537 51.158 22.917 C 50.891 23.42 50.891 23.432 50.891 25.58 L 50.891 27.507 L 51.039 27.479 C 51.118 27.467 51.417 27.377 51.696 27.288 Z M 49.867 21.744 C 50.439 21.568 50.925 21.068 51.091 20.489 C 51.161 20.24 51.161 19.762 51.091 19.513 C 50.921 18.915 50.409 18.408 49.809 18.239 C 49.556 18.169 49.077 18.169 48.825 18.239 C 48.223 18.408 47.712 18.915 47.542 19.513 C 47.511 19.622 47.487 19.842 47.487 20.002 C 47.487 20.162 47.511 20.384 47.542 20.489 C 47.673 20.935 48.011 21.366 48.415 21.592 C 48.601 21.693 48.719 21.731 49.061 21.815 C 49.191 21.846 49.679 21.802 49.867 21.744 Z M 43.141 18.672 C 43.664 18.595 44.388 18.435 44.852 18.29 C 45.246 18.165 45.564 18.035 46.386 17.665 C 47.822 17.023 48.176 16.934 49.317 16.934 C 50.368 16.934 50.835 17.035 51.87 17.489 C 52.141 17.607 52.577 17.798 52.841 17.912 C 53.97 18.404 55.201 18.693 56.507 18.774 L 56.947 18.802 L 56.925 18.669 C 56.716 17.505 56.188 16.313 55.445 15.34 C 55.134 14.93 54.423 14.222 54.009 13.914 C 52.895 13.078 51.598 12.554 50.221 12.383 C 49.793 12.331 48.84 12.331 48.412 12.383 C 47.035 12.554 45.737 13.078 44.623 13.914 C 44.211 14.222 43.5 14.93 43.188 15.34 C 42.445 16.313 41.918 17.505 41.709 18.669 L 41.686 18.802 L 42.145 18.774 C 42.402 18.759 42.85 18.713 43.141 18.672 Z" style="fill: rgb(204, 204, 204);"/>
  <path d="M 77.014 22.927 L 79.003 29.151 L 72.705 29.151 L 71.319 23.586 L 70.084 23.586 L 69.119 29.151 L 63.394 29.151 L 66.708 10.449 L 75.748 10.449 L 75.748 10.449 C 79.183 10.449 80.901 11.975 80.901 15.027 L 80.901 15.027 L 80.901 15.027 C 80.901 16.284 80.71 17.481 80.329 18.618 L 80.329 18.618 L 80.329 18.618 C 79.625 20.772 78.521 22.209 77.014 22.927 L 77.014 22.927 Z M 72.705 15.237 L 71.56 15.237 L 70.897 18.977 L 72.223 18.977 L 72.223 18.977 C 72.906 18.977 73.421 18.904 73.77 18.758 L 73.77 18.758 L 73.77 18.758 C 74.124 18.605 74.365 18.176 74.493 17.471 L 74.493 17.471 L 74.493 17.471 C 74.626 16.76 74.694 16.324 74.694 16.164 L 74.694 16.164 L 74.694 16.164 C 74.694 15.765 74.54 15.509 74.232 15.397 L 74.232 15.397 L 74.232 15.397 C 73.917 15.289 73.408 15.237 72.705 15.237 L 72.705 15.237 Z M 86.898 26.189 L 85.722 29.151 L 79.696 29.151 L 87.62 10.449 L 96.48 10.449 L 97.806 29.151 L 91.749 29.151 L 91.628 26.189 L 86.898 26.189 Z M 91.176 16.195 L 90.875 16.195 L 88.766 21.431 L 91.176 21.431 L 91.176 16.195 Z M 112.751 23.795 L 112.751 23.795 L 112.269 28.822 L 112.269 28.822 C 110.983 29.341 109.356 29.6 107.388 29.6 L 107.388 29.6 L 107.388 29.6 C 104.857 29.6 103.042 29.111 101.944 28.133 L 101.944 28.133 L 101.944 28.133 C 100.852 27.156 100.306 25.65 100.306 23.616 L 100.306 23.616 L 100.306 23.616 C 100.306 22.757 100.447 21.491 100.728 19.815 L 100.728 19.815 L 100.728 19.815 C 101.331 16.384 102.369 13.89 103.842 12.334 L 103.842 12.334 L 103.842 12.334 C 105.321 10.778 107.659 10 110.853 10 L 110.853 10 L 110.853 10 C 111.596 10 112.447 10.077 113.404 10.23 L 113.404 10.23 L 113.404 10.23 C 114.355 10.376 115.052 10.559 115.493 10.778 L 115.493 10.778 L 113.806 15.356 L 113.806 15.356 C 112.621 15.077 111.513 14.937 110.481 14.937 L 110.481 14.937 L 110.481 14.937 C 109.444 14.937 108.704 15.037 108.261 15.237 L 108.261 15.237 L 108.261 15.237 C 107.82 15.436 107.548 15.835 107.448 16.434 L 107.448 16.434 L 106.062 24.274 L 106.062 24.274 C 106.785 24.433 107.528 24.513 108.292 24.513 L 108.292 24.513 L 108.292 24.513 C 109.919 24.513 111.406 24.274 112.751 23.795 Z M 120.345 29.151 L 114.62 29.151 L 117.934 10.449 L 123.66 10.449 L 120.345 29.151 Z M 139.811 29.151 L 134.417 29.151 L 131.343 22.508 L 131.343 22.508 C 131.263 22.368 131.223 22.172 131.223 21.92 L 131.223 21.92 L 131.223 21.92 C 131.223 21.673 131.243 21.391 131.283 21.072 L 131.283 21.072 L 131.042 21.072 L 129.626 29.151 L 123.9 29.151 L 127.215 10.449 L 132.609 10.449 L 135.683 17.092 L 135.683 17.092 C 135.743 17.232 135.773 17.428 135.773 17.68 L 135.773 17.68 L 135.773 17.68 C 135.773 17.927 135.753 18.209 135.713 18.528 L 135.713 18.528 L 135.953 18.528 L 137.4 10.449 L 143.125 10.449 L 139.811 29.151 Z M 153.882 23.645 L 153.882 23.645 L 154.033 22.837 L 152.587 22.837 L 153.4 18.259 L 160.301 18.259 L 158.523 28.254 L 158.523 28.254 C 156.072 29.151 153.611 29.6 151.14 29.6 L 151.14 29.6 L 151.14 29.6 C 148.67 29.6 146.885 29.111 145.787 28.133 L 145.787 28.133 L 145.787 28.133 C 144.695 27.156 144.15 25.65 144.15 23.616 L 144.15 23.616 L 144.15 23.616 C 144.15 22.757 144.29 21.491 144.572 19.815 L 144.572 19.815 L 144.572 19.815 C 145.174 16.344 146.239 13.84 147.766 12.304 L 147.766 12.304 L 147.766 12.304 C 149.292 10.768 151.823 10 155.359 10 L 155.359 10 L 155.359 10 C 156.102 10 157.05 10.08 158.202 10.239 L 158.202 10.239 L 158.202 10.239 C 159.36 10.399 160.21 10.579 160.753 10.778 L 160.753 10.778 L 159.096 15.356 L 159.096 15.356 C 157.589 15.077 156.206 14.937 154.947 14.937 L 154.947 14.937 L 154.947 14.937 C 153.695 14.937 152.798 15.037 152.255 15.237 L 152.255 15.237 L 152.255 15.237 C 151.713 15.436 151.391 15.835 151.291 16.434 L 151.291 16.434 L 149.815 24.902 L 151.713 24.902 L 151.713 24.902 C 152.396 24.902 152.901 24.829 153.23 24.682 L 153.23 24.682 L 153.23 24.682 C 153.564 24.53 153.782 24.184 153.882 23.645 Z" style="white-space: pre; fill: rgb(255, 255, 255);"/>
</svg>
